app/component-library/components/Icons/Icon/assets/key.svg

<svg width="24" height="24" viewBox="0 0 24 24" fill="none" xmlns="http://www.w3.org/2000/svg">
<path d="M20.0709 4.21982C17.1109 1.26982 12.3109 1.26982 9.37091 4.21982C7.30091 6.26982 6.68091 9.21982 7.48091 11.8198L2.78091 16.5198C2.45091 16.8598 2.22091 17.5298 2.29091 18.0098L2.59091 20.1898C2.70091 20.9098 3.37091 21.5898 4.09091 21.6898L6.27091 21.9898C6.75091 22.0598 7.42091 21.8398 7.76091 21.4898L8.58091 20.6698C8.78091 20.4798 8.78091 20.1598 8.58091 19.9598L6.64091 18.0198C6.35091 17.7298 6.35091 17.2498 6.64091 16.9598C6.93091 16.6698 7.41091 16.6698 7.70091 16.9598L9.65091 18.9098C9.84091 19.0998 10.1609 19.0998 10.3509 18.9098L12.4709 16.7998C15.0609 17.6098 18.0109 16.9798 20.0709 14.9298C23.0209 11.9798 23.0209 7.16982 20.0709 4.21982ZM14.7809 11.9998C13.4009 11.9998 12.2809 10.8798 12.2809 9.49982C12.2809 8.11982 13.4009 6.99982 14.7809 6.99982C16.1609 6.99982 17.2809 8.11982 17.2809 9.49982C17.2809 10.8798 16.1609 11.9998 14.7809 11.9998Z" fill="currentColor"/>
</svg>

<svg xmlns="http://www.w3.org/2000/svg" width="24" height="24" viewBox="0 0 24 24" fill="none"><path d="M20.07 4.22c-2.96-2.95-7.76-2.95-10.7 0-2.07 2.05-2.69 5-1.89 7.6l-4.7 4.7c-.33.34-.56 1.01-.49 1.49l.3 2.18c.11.72.78 1.4 1.5 1.5l2.18.3c.48.07 1.15-.15 1.49-.5l.82-.82c.2-.19.2-.51 0-.71l-1.94-1.94a.754.754 0 0 1 0-1.06c.29-.29.77-.29 1.06 0l1.95 1.95c.19.19.51.19.7 0l2.12-2.11c2.59.81 5.54.18 7.6-1.87 2.95-2.95 2.95-7.76 0-10.71zM14.78 12a2.5 2.5 0 0 1 0-5 2.5 2.5 0 0 1 0 5z" fill="currentColor"/></svg>
